X:1
T:Handsome Molly
M:4/4
L:1/4
K:G
 D| D D E G| G2 G E| D D/2D/2 E G| A2 z| G| A A B/2 d d/2| A2 B A|\
 G G D E| D3||
